icons/tk.svg

<?xml version="1.0" ?>
<svg xmlns="http://www.w3.org/2000/svg" xmlns:ev="http://www.w3.org/2001/xml-events" xmlns:xlink="http://www.w3.org/1999/xlink" baseProfile="full" height="600px" version="1.1" viewBox="1616.2563590963618 -1029.125722621173 7012.374906868289 12298.308386746556" width="343px">
	<defs/>
	<path d="M 2211.0,10226.0 C 2201.0,10214.0 2203.0,10209.0 2219.0,10201.0 C 2230.0,10195.0 2246.0,10190.0 2255.0,10190.0 C 2274.0,10190.0 2320.0,10219.0 2320.0,10231.0 C 2320.0,10246.0 2224.0,10241.0 2211.0,10226.0" fill="pink"/>
	<path d="M 2347.0,10223.0 C 2321.0,10198.0 2369.0,10150.0 2420.0,10150.0 C 2444.0,10150.0 2445.0,10161.0 2425.0,10200.0 C 2413.0,10223.0 2402.0,10230.0 2381.0,10230.0 C 2366.0,10230.0 2350.0,10227.0 2347.0,10223.0" fill="pink"/>
	<path d="M 2250.0,10125.0 C 2240.0,10114.0 2240.0,10106.0 2248.0,10098.0 C 2263.0,10083.0 2292.0,10096.0 2288.0,10117.0 C 2284.0,10140.0 2266.0,10144.0 2250.0,10125.0" fill="pink"/>
	<path d="M 2432.0,10076.0 C 2433.0,10050.0 2426.0,10036.0 2406.0,10018.0 C 2387.0,10002.0 2381.0,9989.0 2385.0,9978.0 C 2400.0,9941.0 2490.0,9991.0 2490.0,10035.0 C 2490.0,10058.0 2455.0,10110.0 2440.0,10110.0 C 2435.0,10110.0 2431.0,10095.0 2432.0,10076.0" fill="pink"/>
	<path d="M 2240.0,10061.0 C 2240.0,10046.0 2269.0,10028.0 2285.0,10034.0 C 2313.0,10044.0 2302.0,10070.0 2270.0,10070.0 C 2254.0,10070.0 2240.0,10066.0 2240.0,10061.0" fill="pink"/>
	<path d="M 2273.0,9993.0 C 2263.0,9968.0 2296.0,9945.0 2327.0,9956.0 C 2368.0,9970.0 2365.0,9986.0 2320.0,9998.0 C 2286.0,10006.0 2278.0,10006.0 2273.0,9993.0" fill="pink"/>
	<path d="M 4723.0,7923.0 C 4702.0,7919.0 4671.0,7865.0 4683.0,7853.0 C 4687.0,7850.0 4709.0,7844.0 4732.0,7839.0 C 4771.0,7832.0 4777.0,7833.0 4797.0,7855.0 L 4819.0,7880.0 L 4796.0,7905.0 C 4773.0,7930.0 4766.0,7931.0 4723.0,7923.0" fill="pink"/>
	<path d="M 4517.0,7822.0 C 4496.0,7799.0 4496.0,7786.0 4514.0,7771.0 C 4525.0,7762.0 4533.0,7766.0 4554.0,7791.0 C 4568.0,7808.0 4578.0,7826.0 4574.0,7831.0 C 4565.0,7846.0 4534.0,7841.0 4517.0,7822.0" fill="pink"/>
	<path d="M 4795.0,7800.0 C 4792.0,7795.0 4796.0,7790.0 4804.0,7790.0 C 4813.0,7790.0 4820.0,7795.0 4820.0,7800.0 C 4820.0,7806.0 4816.0,7810.0 4811.0,7810.0 C 4805.0,7810.0 4798.0,7806.0 4795.0,7800.0" fill="pink"/>
	<path d="M 4808.0,7744.0 C 4804.0,7741.0 4813.0,7706.0 4826.0,7667.0 C 4839.0,7628.0 4850.0,7586.0 4850.0,7573.0 C 4850.0,7548.0 4860.0,7544.0 4878.0,7562.0 C 4897.0,7581.0 4892.0,7624.0 4865.0,7678.0 C 4851.0,7706.0 4840.0,7733.0 4840.0,7739.0 C 4840.0,7751.0 4818.0,7754.0 4808.0,7744.0" fill="pink"/>
	<path d="M 4520.0,7720.0 C 4520.0,7708.0 4510.0,7686.0 4498.0,7670.0 C 4477.0,7641.0 4477.0,7640.0 4495.0,7620.0 C 4513.0,7600.0 4515.0,7600.0 4527.0,7616.0 C 4542.0,7637.0 4545.0,7740.0 4530.0,7740.0 C 4525.0,7740.0 4520.0,7731.0 4520.0,7720.0" fill="pink"/>
	<path d="M 4577.0,7553.0 C 4563.0,7540.0 4571.0,7520.0 4589.0,7520.0 C 4614.0,7520.0 4627.0,7540.0 4609.0,7551.0 C 4592.0,7562.0 4585.0,7562.0 4577.0,7553.0" fill="pink"/>
	<path d="M 4760.0,7530.0 C 4760.0,7525.0 4769.0,7520.0 4781.0,7520.0 C 4792.0,7520.0 4798.0,7525.0 4795.0,7530.0 C 4792.0,7536.0 4782.0,7540.0 4774.0,7540.0 C 4766.0,7540.0 4760.0,7536.0 4760.0,7530.0" fill="pink"/>
	<path d="M 4705.0,7520.0 C 4708.0,7515.0 4718.0,7510.0 4726.0,7510.0 C 4734.0,7510.0 4740.0,7515.0 4740.0,7520.0 C 4740.0,7526.0 4731.0,7530.0 4719.0,7530.0 C 4708.0,7530.0 4702.0,7526.0 4705.0,7520.0" fill="pink"/>
	<path d="M 4658.0,7503.0 C 4664.0,7501.0 4676.0,7501.0 4683.0,7503.0 C 4689.0,7506.0 4684.0,7508.0 4670.0,7508.0 C 4656.0,7508.0 4651.0,7506.0 4658.0,7503.0" fill="pink"/>
	<path d="M 7278.0,6996.0 C 7251.0,6976.0 7257.0,6963.0 7297.0,6953.0 C 7326.0,6946.0 7340.0,6935.0 7360.0,6900.0 C 7391.0,6847.0 7414.0,6842.0 7418.0,6885.0 C 7421.0,6918.0 7395.0,6949.0 7330.0,6988.0 C 7301.0,7005.0 7292.0,7006.0 7278.0,6996.0" fill="pink"/>
	<path d="M 7340.0,6778.0 C 7341.0,6760.0 7347.0,6734.0 7355.0,6720.0 C 7363.0,6706.0 7369.0,6674.0 7370.0,6648.0 C 7370.0,6607.0 7373.0,6600.0 7390.0,6600.0 C 7407.0,6600.0 7410.0,6607.0 7410.0,6651.0 C 7410.0,6679.0 7404.0,6716.0 7396.0,6733.0 C 7388.0,6751.0 7380.0,6774.0 7378.0,6785.0 C 7376.0,6796.0 7367.0,6806.0 7357.0,6808.0 C 7344.0,6811.0 7340.0,6805.0 7340.0,6778.0" fill="pink"/>
	<path d="M 7211.0,6777.0 C 7203.0,6766.0 7205.0,6759.0 7219.0,6746.0 C 7235.0,6731.0 7238.0,6731.0 7250.0,6745.0 C 7260.0,6757.0 7260.0,6763.0 7250.0,6775.0 C 7235.0,6794.0 7226.0,6794.0 7211.0,6777.0" fill="pink"/>
	<path d="M 7290.0,6665.0 C 7297.0,6657.0 7306.0,6653.0 7311.0,6656.0 C 7324.0,6664.0 7312.0,6680.0 7293.0,6680.0 C 7280.0,6680.0 7280.0,6677.0 7290.0,6665.0" fill="pink"/>
	<path d="M 7330.0,6620.0 C 7330.0,6615.0 7335.0,6610.0 7340.0,6610.0 C 7346.0,6610.0 7350.0,6615.0 7350.0,6620.0 C 7350.0,6626.0 7346.0,6630.0 7340.0,6630.0 C 7335.0,6630.0 7330.0,6626.0 7330.0,6620.0" fill="pink"/>
	<path d="M 7913.0,100.0 C 7862.0,79.0 7905.0,0.0 7966.0,0.0 C 7999.0,0.0 8040.0,35.0 8040.0,62.0 C 8040.0,102.0 7970.0,123.0 7913.0,100.0" fill="pink"/>
</svg>

<?xml version="1.0" standalone="no"?>
<!DOCTYPE svg PUBLIC "-//W3C//DTD SVG 20010904//EN"
 "http://www.w3.org/TR/2001/REC-SVG-20010904/DTD/svg10.dtd">
<svg version="1.0" xmlns="http://www.w3.org/2000/svg"
 width="1024.000000pt" height="1024.000000pt" viewBox="0 0 1024.000000 1024.000000"
 preserveAspectRatio="xMidYMid meet">
<metadata>
Created by potrace 1.10, written by Peter Selinger 2001-2011
</metadata>
<g transform="translate(0.000000,1024.000000) scale(0.100000,-0.100000)"
fill="#000000" stroke="none">
<path d="M2211 10226 c-10 -12 -8 -17 8 -25 11 -6 27 -11 36 -11 19 0 65 29
65 41 0 15 -96 10 -109 -5z"/>
<path d="M2347 10223 c-26 -25 22 -73 73 -73 24 0 25 11 5 50 -12 23 -23 30
-44 30 -15 0 -31 -3 -34 -7z"/>
<path d="M2250 10125 c-10 -11 -10 -19 -2 -27 15 -15 44 -2 40 19 -4 23 -22
27 -38 8z"/>
<path d="M2432 10076 c1 -26 -6 -40 -26 -58 -19 -16 -25 -29 -21 -40 15 -37
105 13 105 57 0 23 -35 75 -50 75 -5 0 -9 -15 -8 -34z"/>
<path d="M2240 10061 c0 -15 29 -33 45 -27 28 10 17 36 -15 36 -16 0 -30 -4
-30 -9z"/>
<path d="M2273 9993 c-10 -25 23 -48 54 -37 41 14 38 30 -7 42 -34 8 -42 8
-47 -5z"/>
<path d="M4723 7923 c-21 -4 -52 -58 -40 -70 4 -3 26 -9 49 -14 39 -7 45 -6
65 16 l22 25 -23 25 c-23 25 -30 26 -73 18z"/>
<path d="M4517 7822 c-21 -23 -21 -36 -3 -51 11 -9 19 -5 40 20 14 17 24 35
20 40 -9 15 -40 10 -57 -9z"/>
<path d="M4795 7800 c-3 -5 1 -10 9 -10 9 0 16 5 16 10 0 6 -4 10 -9 10 -6 0
-13 -4 -16 -10z"/>
<path d="M4808 7744 c-4 -3 5 -38 18 -77 13 -39 24 -81 24 -94 0 -25 10 -29
28 -11 19 19 14 62 -13 116 -14 28 -25 55 -25 61 0 12 -22 15 -32 5z"/>
<path d="M4520 7720 c0 -12 -10 -34 -22 -50 -21 -29 -21 -30 -3 -50 18 -20 20
-20 32 -4 15 21 18 124 3 124 -5 0 -10 -9 -10 -20z"/>
<path d="M4577 7553 c-14 -13 -6 -33 12 -33 25 0 38 20 20 31 -17 11 -24 11
-32 2z"/>
<path d="M4760 7530 c0 -5 9 -10 21 -10 11 0 17 5 14 10 -3 6 -13 10 -21 10
-8 0 -14 -4 -14 -10z"/>
<path d="M4705 7520 c3 -5 13 -10 21 -10 8 0 14 5 14 10 0 6 -9 10 -21 10 -11
0 -17 -4 -14 -10z"/>
<path d="M4658 7503 c6 -2 18 -2 25 0 6 3 1 5 -13 5 -14 0 -19 -2 -12 -5z"/>
<path d="M7278 6996 c-27 -20 -21 -33 19 -43 29 -7 43 -18 63 -53 31 -53 54
-58 58 -15 3 33 -23 64 -88 103 -29 17 -38 18 -52 8z"/>
<path d="M7340 6778 c1 -18 7 -44 15 -58 8 -14 14 -46 15 -72 0 -41 3 -48 20
-48 17 0 20 7 20 51 0 28 -6 65 -14 82 -8 18 -16 41 -18 52 -2 11 -11 21 -21
23 -13 3 -17 -3 -17 -30z"/>
<path d="M7211 6777 c-8 -11 -6 -18 8 -31 16 -15 19 -15 31 -1 10 12 10 18 0
30 -15 19 -24 19 -39 2z"/>
<path d="M7290 6665 c7 -8 16 -12 21 -9 13 8 1 24 -18 24 -13 0 -13 -3 -3 -15z"/>
<path d="M7330 6620 c0 -5 5 -10 10 -10 6 0 10 5 10 10 0 6 -4 10 -10 10 -5 0
-10 -4 -10 -10z"/>
<path d="M7913 100 c-51 -21 -8 -100 53 -100 33 0 74 35 74 62 0 40 -70 61
-127 38z"/>
</g>
</svg>
